X: 8544
T: Crib Of Perches, The
R: reel
M: 4/4
K: Gmajor
|:A3B AGFD|(3EFG AB cBcA|G2EG EDEG|cAGc AG (3EFG|
A2AB AGFD|(3EFG AB c3c|dged dcAB|cAGE EDD2:|
[K:D]|:dff2 aff2|defd edcA|(3Bcd ef gece|gecA GABc|
dff2 aff2|defd edcA|(3Bcd ec d2cB|AFGE FDD2:|

